icons/fold-down-24.svg

<svg width="24" height="24" viewBox="0 0 24 24" xmlns="http://www.w3.org/2000/svg">
  <path fill-rule="evenodd" clip-rule="evenodd" d="M12 19C11.8011 19 11.6103 18.921 11.4697 18.7803L8.21967 15.5303C7.92678 15.2374 7.92678 14.7626 8.21967 14.4697C8.51256 14.1768 8.98744 14.1768 9.28033 14.4697L12 17.1893L14.7197 14.4697C15.0126 14.1768 15.4874 14.1768 15.7803 14.4697C16.0732 14.7626 16.0732 15.2374 15.7803 15.5303L12.5303 18.7803C12.3897 18.921 12.1989 19 12 19Z"/>
  <path fill-rule="evenodd" clip-rule="evenodd" d="M12 18C11.5858 18 11.25 17.6642 11.25 17.25L11.25 9.75C11.25 9.33579 11.5858 9 12 9C12.4142 9 12.75 9.33579 12.75 9.75L12.75 17.25C12.75 17.6642 12.4142 18 12 18Z"/>
  <path fill-rule="evenodd" clip-rule="evenodd" d="M10.75 6C10.75 5.58579 11.0858 5.25 11.5 5.25H12.5C12.9142 5.25 13.25 5.58579 13.25 6C13.25 6.41421 12.9142 6.75 12.5 6.75H11.5C11.0858 6.75 10.75 6.41421 10.75 6Z"/>
  <path fill-rule="evenodd" clip-rule="evenodd" d="M2.75 6C2.75 5.58579 3.08579 5.25 3.5 5.25H4.5C4.91421 5.25 5.25 5.58579 5.25 6C5.25 6.41421 4.91421 6.75 4.5 6.75H3.5C3.08579 6.75 2.75 6.41421 2.75 6Z"/>
  <path fill-rule="evenodd" clip-rule="evenodd" d="M14.75 6C14.75 5.58579 15.0858 5.25 15.5 5.25H16.5C16.9142 5.25 17.25 5.58579 17.25 6C17.25 6.41421 16.9142 6.75 16.5 6.75H15.5C15.0858 6.75 14.75 6.41421 14.75 6Z"/>
  <path fill-rule="evenodd" clip-rule="evenodd" d="M6.75 6C6.75 5.58579 7.08579 5.25 7.5 5.25H8.5C8.91421 5.25 9.25 5.58579 9.25 6C9.25 6.41421 8.91421 6.75 8.5 6.75H7.5C7.08579 6.75 6.75 6.41421 6.75 6Z"/>
  <path fill-rule="evenodd" clip-rule="evenodd" d="M18.75 6C18.75 5.58579 19.0858 5.25 19.5 5.25H20.5C20.9142 5.25 21.25 5.58579 21.25 6C21.25 6.41421 20.9142 6.75 20.5 6.75H19.5C19.0858 6.75 18.75 6.41421 18.75 6Z"/>
</svg>

<svg xmlns="http://www.w3.org/2000/svg" width="24" height="24" viewBox="0 0 24 24"><path fill-rule="evenodd" d="M12 19a.75.75 0 01-.53-.22l-3.25-3.25a.75.75 0 111.06-1.06L12 17.19l2.72-2.72a.75.75 0 111.06 1.06l-3.25 3.25A.75.75 0 0112 19z"/><path fill-rule="evenodd" d="M12 18a.75.75 0 01-.75-.75v-7.5a.75.75 0 011.5 0v7.5A.75.75 0 0112 18zM10.75 6a.75.75 0 01.75-.75h1a.75.75 0 010 1.5h-1a.75.75 0 01-.75-.75zm-8 0a.75.75 0 01.75-.75h1a.75.75 0 010 1.5h-1A.75.75 0 012.75 6zm12 0a.75.75 0 01.75-.75h1a.75.75 0 010 1.5h-1a.75.75 0 01-.75-.75zm-8 0a.75.75 0 01.75-.75h1a.75.75 0 010 1.5h-1A.75.75 0 016.75 6zm12 0a.75.75 0 01.75-.75h1a.75.75 0 010 1.5h-1a.75.75 0 01-.75-.75z"/></svg>
